images/3235466.svg

<?xml version="1.0" encoding="UTF-8"?>
<svg xmlns="http://www.w3.org/2000/svg" xmlns:xlink="http://www.w3.org/1999/xlink" width="300pt" height="300pt" viewBox="0 0 300 300" version="1.1">
<defs>
<g>
<symbol overflow="visible" id="glyph0-0">
<path style="stroke:none;" d="M 0.453125 1.59375 L 0.453125 -6.34375 L 4.953125 -6.34375 L 4.953125 1.59375 Z M 0.953125 1.09375 L 4.453125 1.09375 L 4.453125 -5.84375 L 0.953125 -5.84375 Z M 0.953125 1.09375 "/>
</symbol>
<symbol overflow="visible" id="glyph0-1">
<path style="stroke:none;" d="M 0.890625 -6.5625 L 2.078125 -6.5625 L 4.984375 -1.078125 L 4.984375 -6.5625 L 5.84375 -6.5625 L 5.84375 0 L 4.65625 0 L 1.75 -5.484375 L 1.75 0 L 0.890625 0 Z M 0.890625 -6.5625 "/>
</symbol>
<symbol overflow="visible" id="glyph0-2">
<path style="stroke:none;" d="M 0.890625 -6.5625 L 1.765625 -6.5625 L 1.765625 -3.875 L 5 -3.875 L 5 -6.5625 L 5.890625 -6.5625 L 5.890625 0 L 5 0 L 5 -3.125 L 1.765625 -3.125 L 1.765625 0 L 0.890625 0 Z M 0.890625 -6.5625 "/>
</symbol>
<symbol overflow="visible" id="glyph0-3">
<path style="stroke:none;" d="M 3.546875 -5.953125 C 2.898438 -5.953125 2.382812 -5.710938 2 -5.234375 C 1.625 -4.753906 1.4375 -4.101562 1.4375 -3.28125 C 1.4375 -2.445312 1.625 -1.789062 2 -1.3125 C 2.382812 -0.832031 2.898438 -0.59375 3.546875 -0.59375 C 4.191406 -0.59375 4.703125 -0.832031 5.078125 -1.3125 C 5.453125 -1.789062 5.640625 -2.445312 5.640625 -3.28125 C 5.640625 -4.101562 5.453125 -4.753906 5.078125 -5.234375 C 4.703125 -5.710938 4.191406 -5.953125 3.546875 -5.953125 Z M 3.546875 -6.6875 C 4.460938 -6.6875 5.195312 -6.375 5.75 -5.75 C 6.300781 -5.132812 6.578125 -4.3125 6.578125 -3.28125 C 6.578125 -2.238281 6.300781 -1.410156 5.75 -0.796875 C 5.195312 -0.179688 4.460938 0.125 3.546875 0.125 C 2.617188 0.125 1.878906 -0.179688 1.328125 -0.796875 C 0.773438 -1.410156 0.5 -2.238281 0.5 -3.28125 C 0.5 -4.3125 0.773438 -5.132812 1.328125 -5.75 C 1.878906 -6.375 2.617188 -6.6875 3.546875 -6.6875 Z M 3.546875 -6.6875 "/>
</symbol>
<symbol overflow="visible" id="glyph0-4">
<path style="stroke:none;" d="M 0.890625 -6.5625 L 4.65625 -6.5625 L 4.65625 -5.8125 L 1.765625 -5.8125 L 1.765625 -3.875 L 4.375 -3.875 L 4.375 -3.140625 L 1.765625 -3.140625 L 1.765625 0 L 0.890625 0 Z M 0.890625 -6.5625 "/>
</symbol>
</g>
</defs>
<g id="surface46129">
<rect x="0" y="0" width="300" height="300" style="fill:rgb(100%,100%,100%);fill-opacity:1;stroke:none;"/>
<path style="fill:none;stroke-width:1.2;stroke-linecap:butt;stroke-linejoin:miter;stroke:rgb(0%,0%,0%);stroke-opacity:1;stroke-miterlimit:10;" d="M 35.25 102.613281 L 60.253906 101.328125 "/>
<path style="fill:none;stroke-width:1.2;stroke-linecap:butt;stroke-linejoin:miter;stroke:rgb(0%,0%,0%);stroke-opacity:1;stroke-miterlimit:10;" d="M 60.253906 101.328125 L 67.0625 111.832031 "/>
<path style="fill:none;stroke-width:1.2;stroke-linecap:butt;stroke-linejoin:miter;stroke:rgb(0%,0%,100%);stroke-opacity:1;stroke-miterlimit:10;" d="M 67.0625 111.832031 L 73.871094 122.339844 "/>
<path style="fill:none;stroke-width:1.2;stroke-linecap:butt;stroke-linejoin:miter;stroke:rgb(0%,0%,100%);stroke-opacity:1;stroke-miterlimit:10;" d="M 73.871094 122.339844 L 86.375 121.695312 "/>
<path style="fill:none;stroke-width:1.2;stroke-linecap:butt;stroke-linejoin:miter;stroke:rgb(0%,0%,0%);stroke-opacity:1;stroke-miterlimit:10;" d="M 86.375 121.695312 L 98.875 121.054688 "/>
<path style=" stroke:none;fill-rule:nonzero;fill:rgb(100%,100%,100%);fill-opacity:1;" d="M 66.871094 116.839844 L 80.871094 116.839844 L 80.871094 127.839844 L 66.871094 127.839844 Z M 66.871094 116.839844 "/>
<g style="fill:rgb(0%,0%,100%);fill-opacity:1;">
  <use xlink:href="#glyph0-1" x="66.871094" y="125.50293"/>
  <use xlink:href="#glyph0-2" x="73.848633" y="125.50293"/>
</g>
<path style="fill:none;stroke-width:1.2;stroke-linecap:butt;stroke-linejoin:miter;stroke:rgb(0%,0%,0%);stroke-opacity:1;stroke-miterlimit:10;" d="M 98.875 121.054688 L 104.570312 109.90625 "/>
<path style="fill:none;stroke-width:1.2;stroke-linecap:butt;stroke-linejoin:miter;stroke:rgb(0%,0%,100%);stroke-opacity:1;stroke-miterlimit:10;" d="M 104.570312 109.90625 L 110.265625 98.753906 "/>
<path style="fill:none;stroke-width:1.2;stroke-linecap:butt;stroke-linejoin:miter;stroke:rgb(0%,0%,0%);stroke-opacity:1;stroke-miterlimit:10;" d="M 105.261719 121.503906 L 109.816406 112.585938 "/>
<path style="fill:none;stroke-width:1.2;stroke-linecap:butt;stroke-linejoin:miter;stroke:rgb(0%,0%,100%);stroke-opacity:1;stroke-miterlimit:10;" d="M 109.816406 112.585938 L 114.371094 103.664062 "/>
<path style="fill:none;stroke-width:1.2;stroke-linecap:butt;stroke-linejoin:miter;stroke:rgb(0%,0%,100%);stroke-opacity:1;stroke-miterlimit:10;" d="M 112.492188 142.066406 L 105.683594 131.558594 "/>
<path style="fill:none;stroke-width:1.2;stroke-linecap:butt;stroke-linejoin:miter;stroke:rgb(0%,0%,0%);stroke-opacity:1;stroke-miterlimit:10;" d="M 105.683594 131.558594 L 98.875 121.054688 "/>
<path style="fill:none;stroke-width:1.2;stroke-linecap:butt;stroke-linejoin:miter;stroke:rgb(0%,0%,100%);stroke-opacity:1;stroke-miterlimit:10;" d="M 110.265625 98.753906 L 122.769531 98.113281 "/>
<path style="fill:none;stroke-width:1.2;stroke-linecap:butt;stroke-linejoin:miter;stroke:rgb(0%,0%,0%);stroke-opacity:1;stroke-miterlimit:10;" d="M 122.769531 98.113281 L 135.269531 97.46875 "/>
<path style=" stroke:none;fill-rule:nonzero;fill:rgb(100%,100%,100%);fill-opacity:1;" d="M 107.265625 93.253906 L 114.265625 93.253906 L 114.265625 104.253906 L 107.265625 104.253906 Z M 107.265625 93.253906 "/>
<g style="fill:rgb(0%,0%,100%);fill-opacity:1;">
  <use xlink:href="#glyph0-1" x="107.265625" y="101.916992"/>
</g>
<path style="fill:none;stroke-width:1.2;stroke-linecap:butt;stroke-linejoin:miter;stroke:rgb(0%,0%,0%);stroke-opacity:1;stroke-miterlimit:10;" d="M 135.269531 97.46875 L 148.886719 118.480469 "/>
<path style="fill:none;stroke-width:1.2;stroke-linecap:butt;stroke-linejoin:miter;stroke:rgb(0%,0%,0%);stroke-opacity:1;stroke-miterlimit:10;" d="M 131.6875 102.773438 L 142.582031 119.585938 "/>
<path style="fill:none;stroke-width:1.2;stroke-linecap:butt;stroke-linejoin:miter;stroke:rgb(0%,0%,0%);stroke-opacity:1;stroke-miterlimit:10;" d="M 148.886719 118.480469 L 137.496094 140.78125 "/>
<path style="fill:none;stroke-width:1.2;stroke-linecap:butt;stroke-linejoin:miter;stroke:rgb(0%,0%,100%);stroke-opacity:1;stroke-miterlimit:10;" d="M 173.890625 117.195312 L 161.390625 117.839844 "/>
<path style="fill:none;stroke-width:1.2;stroke-linecap:butt;stroke-linejoin:miter;stroke:rgb(0%,0%,0%);stroke-opacity:1;stroke-miterlimit:10;" d="M 161.390625 117.839844 L 148.886719 118.480469 "/>
<path style="fill:none;stroke-width:1.2;stroke-linecap:butt;stroke-linejoin:miter;stroke:rgb(0%,0%,0%);stroke-opacity:1;stroke-miterlimit:10;" d="M 137.496094 140.78125 L 124.996094 141.421875 "/>
<path style="fill:none;stroke-width:1.2;stroke-linecap:butt;stroke-linejoin:miter;stroke:rgb(0%,0%,100%);stroke-opacity:1;stroke-miterlimit:10;" d="M 124.996094 141.421875 L 112.492188 142.066406 "/>
<path style="fill:none;stroke-width:1.2;stroke-linecap:butt;stroke-linejoin:miter;stroke:rgb(0%,0%,0%);stroke-opacity:1;stroke-miterlimit:10;" d="M 134.695312 135.023438 L 124.691406 135.539062 "/>
<path style="fill:none;stroke-width:1.2;stroke-linecap:butt;stroke-linejoin:miter;stroke:rgb(0%,0%,100%);stroke-opacity:1;stroke-miterlimit:10;" d="M 124.691406 135.539062 L 114.691406 136.054688 "/>
<path style="fill:none;stroke-width:1.2;stroke-linecap:butt;stroke-linejoin:miter;stroke:rgb(0%,0%,0%);stroke-opacity:1;stroke-miterlimit:10;" d="M 137.496094 140.78125 L 144.304688 151.285156 "/>
<path style="fill:none;stroke-width:1.2;stroke-linecap:butt;stroke-linejoin:miter;stroke:rgb(0%,0%,100%);stroke-opacity:1;stroke-miterlimit:10;" d="M 144.304688 151.285156 L 151.113281 161.792969 "/>
<path style=" stroke:none;fill-rule:nonzero;fill:rgb(100%,100%,100%);fill-opacity:1;" d="M 109.492188 136.566406 L 116.492188 136.566406 L 116.492188 147.566406 L 109.492188 147.566406 Z M 109.492188 136.566406 "/>
<g style="fill:rgb(0%,0%,100%);fill-opacity:1;">
  <use xlink:href="#glyph0-1" x="109.492188" y="145.229492"/>
</g>
<path style="fill:none;stroke-width:1.2;stroke-linecap:butt;stroke-linejoin:miter;stroke:rgb(0%,0%,100%);stroke-opacity:1;stroke-miterlimit:10;" d="M 151.113281 161.792969 L 163.617188 161.148438 "/>
<path style="fill:none;stroke-width:1.2;stroke-linecap:butt;stroke-linejoin:miter;stroke:rgb(0%,0%,0%);stroke-opacity:1;stroke-miterlimit:10;" d="M 163.617188 161.148438 L 176.117188 160.507812 "/>
<path style="fill:none;stroke-width:1.2;stroke-linecap:butt;stroke-linejoin:miter;stroke:rgb(0%,0%,100%);stroke-opacity:1;stroke-miterlimit:10;" d="M 151.113281 161.792969 L 145.417969 172.941406 "/>
<path style="fill:none;stroke-width:1.2;stroke-linecap:butt;stroke-linejoin:miter;stroke:rgb(0%,0%,0%);stroke-opacity:1;stroke-miterlimit:10;" d="M 145.417969 172.941406 L 139.722656 184.089844 "/>
<path style=" stroke:none;fill-rule:nonzero;fill:rgb(100%,100%,100%);fill-opacity:1;" d="M 148.113281 156.292969 L 155.113281 156.292969 L 155.113281 167.292969 L 148.113281 167.292969 Z M 148.113281 156.292969 "/>
<g style="fill:rgb(0%,0%,100%);fill-opacity:1;">
  <use xlink:href="#glyph0-1" x="148.113281" y="164.956055"/>
</g>
<path style="fill:none;stroke-width:1.2;stroke-linecap:butt;stroke-linejoin:miter;stroke:rgb(0%,0%,0%);stroke-opacity:1;stroke-miterlimit:10;" d="M 173.648438 162.109375 L 180.453125 172.613281 "/>
<path style="fill:none;stroke-width:1.2;stroke-linecap:butt;stroke-linejoin:miter;stroke:rgb(100%,0%,0%);stroke-opacity:1;stroke-miterlimit:10;" d="M 180.453125 172.613281 L 187.261719 183.121094 "/>
<path style="fill:none;stroke-width:1.2;stroke-linecap:butt;stroke-linejoin:miter;stroke:rgb(0%,0%,0%);stroke-opacity:1;stroke-miterlimit:10;" d="M 178.589844 158.902344 L 185.398438 169.410156 "/>
<path style="fill:none;stroke-width:1.2;stroke-linecap:butt;stroke-linejoin:miter;stroke:rgb(100%,0%,0%);stroke-opacity:1;stroke-miterlimit:10;" d="M 185.398438 169.410156 L 192.207031 179.917969 "/>
<path style="fill:none;stroke-width:1.2;stroke-linecap:butt;stroke-linejoin:miter;stroke:rgb(0%,0%,0%);stroke-opacity:1;stroke-miterlimit:10;" d="M 176.117188 160.507812 L 187.507812 138.207031 "/>
<path style=" stroke:none;fill-rule:nonzero;fill:rgb(100%,100%,100%);fill-opacity:1;" d="M 185.734375 176.019531 L 193.734375 176.019531 L 193.734375 187.019531 L 185.734375 187.019531 Z M 185.734375 176.019531 "/>
<g style="fill:rgb(100%,0%,0%);fill-opacity:1;">
  <use xlink:href="#glyph0-3" x="185.734375" y="184.682617"/>
</g>
<path style="fill:none;stroke-width:1.2;stroke-linecap:butt;stroke-linejoin:miter;stroke:rgb(0%,0%,0%);stroke-opacity:1;stroke-miterlimit:10;" d="M 187.507812 138.207031 L 180.699219 127.703125 "/>
<path style="fill:none;stroke-width:1.2;stroke-linecap:butt;stroke-linejoin:miter;stroke:rgb(0%,0%,100%);stroke-opacity:1;stroke-miterlimit:10;" d="M 180.699219 127.703125 L 173.890625 117.195312 "/>
<path style="fill:none;stroke-width:1.2;stroke-linecap:butt;stroke-linejoin:miter;stroke:rgb(0%,0%,0%);stroke-opacity:1;stroke-miterlimit:10;" d="M 181.203125 139.3125 L 175.753906 130.90625 "/>
<path style="fill:none;stroke-width:1.2;stroke-linecap:butt;stroke-linejoin:miter;stroke:rgb(0%,0%,100%);stroke-opacity:1;stroke-miterlimit:10;" d="M 175.753906 130.90625 L 170.308594 122.5 "/>
<path style="fill:none;stroke-width:1.2;stroke-linecap:butt;stroke-linejoin:miter;stroke:rgb(0%,0%,0%);stroke-opacity:1;stroke-miterlimit:10;" d="M 187.507812 138.207031 L 212.511719 136.921875 "/>
<path style=" stroke:none;fill-rule:nonzero;fill:rgb(100%,100%,100%);fill-opacity:1;" d="M 170.890625 111.695312 L 177.890625 111.695312 L 177.890625 122.695312 L 170.890625 122.695312 Z M 170.890625 111.695312 "/>
<g style="fill:rgb(0%,0%,100%);fill-opacity:1;">
  <use xlink:href="#glyph0-1" x="170.890625" y="120.358398"/>
</g>
<path style="fill:none;stroke-width:1.2;stroke-linecap:butt;stroke-linejoin:miter;stroke:rgb(0%,0%,0%);stroke-opacity:1;stroke-miterlimit:10;" d="M 212.511719 136.921875 L 226.128906 157.933594 "/>
<path style="fill:none;stroke-width:1.2;stroke-linecap:butt;stroke-linejoin:miter;stroke:rgb(0%,0%,0%);stroke-opacity:1;stroke-miterlimit:10;" d="M 218.820312 135.820312 L 229.710938 152.628906 "/>
<path style="fill:none;stroke-width:1.2;stroke-linecap:butt;stroke-linejoin:miter;stroke:rgb(0%,0%,0%);stroke-opacity:1;stroke-miterlimit:10;" d="M 223.902344 114.625 L 212.511719 136.921875 "/>
<path style="fill:none;stroke-width:1.2;stroke-linecap:butt;stroke-linejoin:miter;stroke:rgb(0%,0%,0%);stroke-opacity:1;stroke-miterlimit:10;" d="M 226.128906 157.933594 L 251.132812 156.648438 "/>
<path style="fill:none;stroke-width:1.2;stroke-linecap:butt;stroke-linejoin:miter;stroke:rgb(0%,0%,0%);stroke-opacity:1;stroke-miterlimit:10;" d="M 251.132812 156.648438 L 262.523438 134.351562 "/>
<path style="fill:none;stroke-width:1.2;stroke-linecap:butt;stroke-linejoin:miter;stroke:rgb(0%,0%,0%);stroke-opacity:1;stroke-miterlimit:10;" d="M 247.027344 151.738281 L 256.136719 133.902344 "/>
<path style="fill:none;stroke-width:1.2;stroke-linecap:butt;stroke-linejoin:miter;stroke:rgb(0%,0%,0%);stroke-opacity:1;stroke-miterlimit:10;" d="M 251.132812 156.648438 L 257.941406 167.15625 "/>
<path style="fill:none;stroke-width:1.2;stroke-linecap:butt;stroke-linejoin:miter;stroke:rgb(20%,80%,80%);stroke-opacity:1;stroke-miterlimit:10;" d="M 257.941406 167.15625 L 264.75 177.660156 "/>
<path style="fill:none;stroke-width:1.2;stroke-linecap:butt;stroke-linejoin:miter;stroke:rgb(0%,0%,0%);stroke-opacity:1;stroke-miterlimit:10;" d="M 262.523438 134.351562 L 248.90625 113.339844 "/>
<path style="fill:none;stroke-width:1.2;stroke-linecap:butt;stroke-linejoin:miter;stroke:rgb(0%,0%,0%);stroke-opacity:1;stroke-miterlimit:10;" d="M 248.90625 113.339844 L 223.902344 114.625 "/>
<path style="fill:none;stroke-width:1.2;stroke-linecap:butt;stroke-linejoin:miter;stroke:rgb(0%,0%,0%);stroke-opacity:1;stroke-miterlimit:10;" d="M 246.707031 119.351562 L 226.703125 120.378906 "/>
<path style="fill:none;stroke-width:1.2;stroke-linecap:butt;stroke-linejoin:miter;stroke:rgb(0%,0%,0%);stroke-opacity:1;stroke-miterlimit:10;" d="M 248.90625 113.339844 L 254.601562 102.191406 "/>
<path style="fill:none;stroke-width:1.2;stroke-linecap:butt;stroke-linejoin:miter;stroke:rgb(20%,80%,80%);stroke-opacity:1;stroke-miterlimit:10;" d="M 254.601562 102.191406 L 260.296875 91.039062 "/>
<path style=" stroke:none;fill-rule:nonzero;fill:rgb(100%,100%,100%);fill-opacity:1;" d="M 257.296875 85.539062 L 263.296875 85.539062 L 263.296875 96.539062 L 257.296875 96.539062 Z M 257.296875 85.539062 "/>
<g style="fill:rgb(20%,80%,80%);fill-opacity:1;">
  <use xlink:href="#glyph0-4" x="257.296875" y="94.202148"/>
</g>
<path style=" stroke:none;fill-rule:nonzero;fill:rgb(100%,100%,100%);fill-opacity:1;" d="M 261.75 172.160156 L 267.75 172.160156 L 267.75 183.160156 L 261.75 183.160156 Z M 261.75 172.160156 "/>
<g style="fill:rgb(20%,80%,80%);fill-opacity:1;">
  <use xlink:href="#glyph0-4" x="261.75" y="180.823242"/>
</g>
<path style="fill:none;stroke-width:1.2;stroke-linecap:butt;stroke-linejoin:miter;stroke:rgb(0%,0%,0%);stroke-opacity:1;stroke-miterlimit:10;" d="M 139.722656 184.089844 L 114.71875 185.375 "/>
<path style="fill:none;stroke-width:1.2;stroke-linecap:butt;stroke-linejoin:miter;stroke:rgb(0%,0%,0%);stroke-opacity:1;stroke-miterlimit:10;" d="M 114.71875 185.375 L 109.023438 196.523438 "/>
<path style="fill:none;stroke-width:1.2;stroke-linecap:butt;stroke-linejoin:miter;stroke:rgb(100%,0%,0%);stroke-opacity:1;stroke-miterlimit:10;" d="M 109.023438 196.523438 L 103.332031 207.671875 "/>
<path style="fill:none;stroke-width:1.2;stroke-linecap:butt;stroke-linejoin:miter;stroke:rgb(100%,0%,0%);stroke-opacity:1;stroke-miterlimit:10;" d="M 103.332031 207.671875 L 90.828125 208.316406 "/>
<path style="fill:none;stroke-width:1.2;stroke-linecap:butt;stroke-linejoin:miter;stroke:rgb(0%,0%,0%);stroke-opacity:1;stroke-miterlimit:10;" d="M 90.828125 208.316406 L 78.324219 208.960938 "/>
<path style=" stroke:none;fill-rule:nonzero;fill:rgb(100%,100%,100%);fill-opacity:1;" d="M 99.332031 202.171875 L 107.332031 202.171875 L 107.332031 213.171875 L 99.332031 213.171875 Z M 99.332031 202.171875 "/>
<g style="fill:rgb(100%,0%,0%);fill-opacity:1;">
  <use xlink:href="#glyph0-3" x="99.332031" y="210.834961"/>
</g>
</g>
</svg>

<svg xmlns="http://www.w3.org/2000/svg" xmlns:xlink="http://www.w3.org/1999/xlink" width="300pt" height="300pt" viewBox="0 0 300 300"><defs><symbol overflow="visible"><path d="M.453 1.594v-7.938h4.5v7.938zm.5-.5h3.5v-6.938h-3.5zm0 0"/></symbol><symbol overflow="visible" id="a"><path d="M.89-6.563H2.08l2.906 5.485v-5.484h.86V0H4.656L1.75-5.484V0H.89zm0 0"/></symbol><symbol overflow="visible" id="b"><path d="M.89-6.563h.876v2.688H5v-2.688h.89V0H5v-3.125H1.766V0H.89zm0 0"/></symbol><symbol overflow="visible" id="c"><path d="M3.547-5.953c-.65 0-1.164.242-1.547.72-.375.48-.563 1.13-.563 1.952 0 .835.188 1.49.563 1.967.383.48.898.72 1.547.72.644 0 1.156-.24 1.53-.72.376-.476.564-1.132.564-1.968 0-.822-.187-1.474-.562-1.954-.375-.477-.887-.72-1.53-.72zm0-.734c.914 0 1.648.312 2.203.937.55.617.828 1.438.828 2.47 0 1.042-.277 1.87-.828 2.483-.555.617-1.29.922-2.203.922-.93 0-1.668-.305-2.22-.922C.774-1.41.5-2.237.5-3.28c0-1.033.273-1.853.828-2.47.55-.625 1.29-.938 2.22-.938zm0 0"/></symbol><symbol overflow="visible" id="d"><path d="M.89-6.563h3.766v.75h-2.89v1.938h2.61v.734h-2.61V0H.89zm0 0"/></symbol></defs><g><path fill="#fff" d="M0 0h300v300H0z"/><path d="M35.25 102.613l25.004-1.285M60.254 101.328l6.81 10.504" stroke-width="1.2" stroke="#000" stroke-miterlimit="10" fill="none"/><path d="M67.063 111.832l6.808 10.508M73.87 122.34l12.505-.645" stroke-width="1.2" stroke="#00f" stroke-miterlimit="10" fill="none"/><path d="M86.375 121.695l12.5-.64" stroke-width="1.2" stroke="#000" stroke-miterlimit="10" fill="none"/><path d="M66.87 116.84h14v11h-14zm0 0" fill="#fff"/><g fill="#00f"><use xlink:href="#a" x="66.871" y="125.503"/><use xlink:href="#b" x="73.849" y="125.503"/></g><path d="M98.875 121.055l5.695-11.15" stroke-width="1.2" stroke="#000" stroke-miterlimit="10" fill="none"/><path d="M104.57 109.906l5.696-11.152" stroke-width="1.2" stroke="#00f" stroke-miterlimit="10" fill="none"/><path d="M105.262 121.504l4.554-8.918" stroke-width="1.2" stroke="#000" stroke-miterlimit="10" fill="none"/><path d="M109.816 112.586l4.555-8.922M112.492 142.066l-6.808-10.507" stroke-width="1.2" stroke="#00f" stroke-miterlimit="10" fill="none"/><path d="M105.684 131.56l-6.81-10.505" stroke-width="1.2" stroke="#000" stroke-miterlimit="10" fill="none"/><path d="M110.266 98.754l12.504-.64" stroke-width="1.2" stroke="#00f" stroke-miterlimit="10" fill="none"/><path d="M122.77 98.113l12.5-.644" stroke-width="1.2" stroke="#000" stroke-miterlimit="10" fill="none"/><path d="M107.266 93.254h7v11h-7zm0 0" fill="#fff"/><use xlink:href="#a" x="107.266" y="101.917" fill="#00f"/><path d="M135.27 97.47l13.617 21.01M131.688 102.773l10.894 16.813M148.887 118.48l-11.39 22.3" stroke-width="1.2" stroke="#000" stroke-miterlimit="10" fill="none"/><path d="M173.89 117.195l-12.5.645" stroke-width="1.2" stroke="#00f" stroke-miterlimit="10" fill="none"/><path d="M161.39 117.84l-12.503.64M137.496 140.78l-12.5.642" stroke-width="1.2" stroke="#000" stroke-miterlimit="10" fill="none"/><path d="M124.996 141.422l-12.504.644" stroke-width="1.2" stroke="#00f" stroke-miterlimit="10" fill="none"/><path d="M134.695 135.023l-10.004.516" stroke-width="1.2" stroke="#000" stroke-miterlimit="10" fill="none"/><path d="M124.69 135.54l-10 .515" stroke-width="1.2" stroke="#00f" stroke-miterlimit="10" fill="none"/><path d="M137.496 140.78l6.81 10.505" stroke-width="1.2" stroke="#000" stroke-miterlimit="10" fill="none"/><path d="M144.305 151.285l6.808 10.508" stroke-width="1.2" stroke="#00f" stroke-miterlimit="10" fill="none"/><path d="M109.492 136.566h7v11h-7zm0 0" fill="#fff"/><use xlink:href="#a" x="109.492" y="145.229" fill="#00f"/><path d="M151.113 161.793l12.504-.645" stroke-width="1.2" stroke="#00f" stroke-miterlimit="10" fill="none"/><path d="M163.617 161.148l12.5-.64" stroke-width="1.2" stroke="#000" stroke-miterlimit="10" fill="none"/><path d="M151.113 161.793l-5.695 11.148" stroke-width="1.2" stroke="#00f" stroke-miterlimit="10" fill="none"/><path d="M145.418 172.94l-5.695 11.15" stroke-width="1.2" stroke="#000" stroke-miterlimit="10" fill="none"/><path d="M148.113 156.293h7v11h-7zm0 0" fill="#fff"/><use xlink:href="#a" x="148.113" y="164.956" fill="#00f"/><path d="M173.648 162.11l6.805 10.503" stroke-width="1.2" stroke="#000" stroke-miterlimit="10" fill="none"/><path d="M180.453 172.613l6.81 10.508" stroke-width="1.2" stroke="#f00" stroke-miterlimit="10" fill="none"/><path d="M178.59 158.902l6.808 10.508" stroke-width="1.2" stroke="#000" stroke-miterlimit="10" fill="none"/><path d="M185.398 169.41l6.81 10.508" stroke-width="1.2" stroke="#f00" stroke-miterlimit="10" fill="none"/><path d="M176.117 160.508l11.39-22.3" stroke-width="1.2" stroke="#000" stroke-miterlimit="10" fill="none"/><path d="M185.734 176.02h8v11h-8zm0 0" fill="#fff"/><use xlink:href="#c" x="185.734" y="184.683" fill="#f00"/><path d="M187.508 138.207l-6.81-10.504" stroke-width="1.2" stroke="#000" stroke-miterlimit="10" fill="none"/><path d="M180.7 127.703l-6.81-10.508" stroke-width="1.2" stroke="#00f" stroke-miterlimit="10" fill="none"/><path d="M181.203 139.313l-5.45-8.407" stroke-width="1.2" stroke="#000" stroke-miterlimit="10" fill="none"/><path d="M175.754 130.906l-5.445-8.406" stroke-width="1.2" stroke="#00f" stroke-miterlimit="10" fill="none"/><path d="M187.508 138.207l25.004-1.285" stroke-width="1.2" stroke="#000" stroke-miterlimit="10" fill="none"/><path d="M170.89 111.695h7v11h-7zm0 0" fill="#fff"/><use xlink:href="#a" x="170.891" y="120.358" fill="#00f"/><path d="M212.512 136.922l13.617 21.012M218.82 135.82l10.89 16.81M223.902 114.625l-11.39 22.297M226.13 157.934l25.003-1.286M251.133 156.648l11.39-22.296M247.027 151.738l9.11-17.836M251.133 156.648l6.808 10.508" stroke-width="1.2" stroke="#000" stroke-miterlimit="10" fill="none"/><path d="M257.94 167.156l6.81 10.504" stroke-width="1.2" stroke="#3cc" stroke-miterlimit="10" fill="none"/><path d="M262.523 134.352l-13.617-21.012M248.906 113.34l-25.004 1.285M246.707 119.352l-20.004 1.027M248.906 113.34l5.696-11.15" stroke-width="1.2" stroke="#000" stroke-miterlimit="10" fill="none"/><path d="M254.602 102.19l5.695-11.15" stroke-width="1.2" stroke="#3cc" stroke-miterlimit="10" fill="none"/><path d="M257.297 85.54h6v11h-6zm0 0" fill="#fff"/><use xlink:href="#d" x="257.297" y="94.202" fill="#3cc"/><path d="M261.75 172.16h6v11h-6zm0 0" fill="#fff"/><use xlink:href="#d" x="261.75" y="180.823" fill="#3cc"/><path d="M139.723 184.09l-25.004 1.285M114.72 185.375l-5.697 11.148" stroke-width="1.2" stroke="#000" stroke-miterlimit="10" fill="none"/><path d="M109.023 196.523l-5.69 11.15M103.332 207.672l-12.504.644" stroke-width="1.2" stroke="#f00" stroke-miterlimit="10" fill="none"/><path d="M90.828 208.316l-12.504.645" stroke-width="1.2" stroke="#000" stroke-miterlimit="10" fill="none"/><path d="M99.332 202.172h8v11h-8zm0 0" fill="#fff"/><use xlink:href="#c" x="99.332" y="210.835" fill="#f00"/></g></svg>
